!!!OTL: 1312. Geistliches Soldatenlied / über II. Timoth. Cap. 2. V. 3.
!!!ODT: 17 Jhr.
!!!ARE: Europa, Mitteleuropa, Deutschland
!!!SCT: E1312
!!!TXL: @@DE
!!!YEM: Copyright 1995, estate of Helmut Schaffrath.
**kern	**text
*ICvox	*
*M4/4	*
*met(c)	*
*k[f#]	*
*G:	*
!LO:TX:a:t=Ende des 17. Jahrh.	!
{4d	Wer
=1	=1
4g	will
4f#	ein
4g	Jün-
4a	-ger
=2	=2
4.b	Je-
8cc	-ſu
4dd}	ſein,
{4ee	Und
=3	=3
4dd	nicht
8ccL	ein
8bJ	.
4.a	Wi-
8g	-der-
=4	=4
2.g}	-chriſt,
{4d	Der
=5	=5
4g	ſtell
4f#	ſich
4g	auf
4a	den
=6	=6
4.b	Werb-
8cc	-Platʒ
4dd}	ein,
{4ee	wie
=7	=7
4dd	es
8ccL	ge-
8bJ	.
4.a	-bo-
8g	-ten
=8	=8
2.g}	iſt.
{4g	Die
=9	=9
4.cc	ro-
8b	-the
4cc	Fah-
4dd	-ne
=10	=10
2.ee}	weht,
{4dd	Wohl
=11	=11
4cc	dem,
4b	der
4a	ʒu
4g	ihr
=12	=12
2.a}	ſteht,
{4d	Die
=13	=13
4g	Tromm-
4f#	-len
4g	ſchal-
4a	-len
=14	=14
4.b	weit
8cc	und
4dd}	breit
{4ee	Friſch
=15	=15
4dd	auf,
8ccL	friſch
8bJ	.
4.a	auf
8g	ʒum
=16	=16
2.g}	Streit!
==	==
!!!AGN: Staende -, Soldaten -, Kriegs - Lied, geistlich
!!!ONB: ESAC (Essen Associative Code) Database: ERK3
!!!AMT: simple quadruple
!!!AIN: vox
!!!EED: Helmut Schaffrath
!!!EEV: 1.0
!!!GTL: Staendelieder (Berufslieder). 1. Soldaten- und Kriegslieder. Soldatenlieder seit dem 30jaehr. Kriege.
!!!URL-scan: https://rosdok.uni-rostock.de/mcrviewer/recordIdentifier/rosdok_ppn745177999/iview2/phys_0202.iview2?x=-128.77276441889308&y=1069.9936584149254&scale=0.5870222003877485&rotation=0&layout=singlePageLayout
!!!ENC: Anna Maria Matuszewska
!!!EEV: 2024/12/27
*-	*-
